src/assets/ethereum_logo.svg

<svg fill="none" height="60" viewBox="0 0 60 60" width="60" xmlns="http://www.w3.org/2000/svg"><circle cx="30" cy="30" fill="#627eea" r="30"/><path d="m29.9961 14-.2185.7293v21.1611l.2185.2142 9.9976-5.8062z" fill="#c0cbf6"/><path d="m29.9979 14-9.9979 16.2984 9.9979 5.8062v-10.271z" fill="#fff"/><path d="m29.9962 37.9614-.1232.1475v7.5379l.1232.3533 10.0037-13.8419z" fill="#c0cbf6"/><path d="m29.9979 46v-8.0387l-9.9979-5.8032z" fill="#fff"/><path d="m29.9963 36.116 9.9976-5.8062-9.9976-4.4648z" fill="#8197ee"/><path d="m20 30.3097 9.9979 5.8062v-10.271z" fill="#c0cbf6"/></svg>

<svg width="60" height="60" viewBox="0 0 60 60" fill="none" xmlns="http://www.w3.org/2000/svg">
<circle cx="30" cy="30" r="30" fill="#627EEA"/>
<path d="M29.9961 14L29.7776 14.7293V35.8904L29.9961 36.1046L39.9937 30.2984L29.9961 14Z" fill="#C0CBF6"/>
<path d="M29.9979 14L20 30.2984L29.9979 36.1046V25.8336V14Z" fill="white"/>
<path d="M29.9962 37.9614L29.873 38.1089V45.6468L29.9962 46.0001L39.9999 32.1582L29.9962 37.9614Z" fill="#C0CBF6"/>
<path d="M29.9979 46V37.9613L20 32.1581L29.9979 46Z" fill="white"/>
<path d="M29.9963 36.116L39.9939 30.3098L29.9963 25.845V36.116Z" fill="#8197EE"/>
<path d="M20 30.3097L29.9979 36.1159V25.8449L20 30.3097Z" fill="#C0CBF6"/>
</svg>
